X:31
T:Miss McInnes' Reel - Dandaleith
T:Miss MacInnes
R:reel
C:William Marshall
S:1822 Collection p55
B:Athole
Z:Paul Stewart Cranford (P.S.C.), <http://www.cranfordpub.com>
M:C|
L:1/8
Q:333
K:F
d|cF F/F/F dcBA|GABc dGBd|cF F/F/F dcBA|cfeg fFB:|
||d|cfAf cfaf|egba gGBd|cfAf Bfcf|dfeg fFBd|
cfAf cfaf|egba gGBd|bgaf agfe|gfed cFB|]

